img/preloader_second.svg

<svg width="117" height="89" viewBox="0 0 117 89" fill="none" xmlns="http://www.w3.org/2000/svg">
<path d="M43.1786 0L0 28.5097V89H117V29.7832L43.1786 0ZM3.18953 80.2526V42.0158L9.16494 38.0969V80.2526H3.18953ZM10.7528 80.2526V37.0612L16.7422 33.1282V80.2526H10.7528ZM18.3299 80.2526V32.0785L24.3192 28.1598V80.2526H18.3299ZM25.9071 80.2526V27.0681L31.8825 23.1491V80.2105L25.9071 80.2526ZM33.4842 80.2526V22.1415L37.8856 19.2584L39.4875 18.2087V80.2526H33.4842ZM41.0614 80.2526V17.173L43.4152 15.6193L47.0368 17.0189V80.1825L41.0614 80.2526ZM48.8614 80.2526V17.8168L54.6139 20.1401V80.3226L48.8614 80.2526ZM56.4386 80.2526V20.8678L62.1911 23.1912V80.2526H56.4386ZM64.0157 80.2526V23.933L69.7821 26.2564V80.2526H64.0157ZM71.5789 80.2526V26.984L77.3452 29.3074V80.2526H71.5789ZM79.156 80.2526V30.0352L84.9364 32.3726V80.2526H79.156ZM86.7332 80.2526V33.0864L92.4857 35.4236V80.2105L86.7332 80.2526ZM94.3103 80.2526V36.1514L100.077 38.4888V80.2526H94.3103ZM101.888 80.2526V39.2026L107.64 41.5258V80.2526H101.888ZM113.406 80.2526H109.465V42.2536L113.406 43.8492V80.2526Z" fill="url(#paint0_linear_599_3414)"/>
<defs>
<linearGradient id="paint0_linear_599_3414" x1="58.5279" y1="98.6432" x2="58.5279" y2="2.70121" gradientUnits="userSpaceOnUse">
<stop stop-color="#C4A27A"/>
<stop offset="1" stop-color="#DBBC9A"/>
</linearGradient>
</defs>
</svg>

<svg xmlns="http://www.w3.org/2000/svg" width="117" height="89" fill="none"><path fill="url(#a)" d="M43.179 0 0 28.51V89h117V29.783L43.179 0ZM3.189 80.253V42.016l5.976-3.92v42.157H3.19Zm7.564 0V37.06l5.99-3.933v47.125h-5.99Zm7.577 0V32.078l5.99-3.918v52.093h-5.99Zm7.577 0V27.068l5.976-3.919V80.21l-5.976.043Zm7.577 0V22.142l4.402-2.884 1.601-1.05v62.045h-6.003Zm7.577 0v-63.08l2.354-1.554 3.622 1.4v63.163l-5.976.07Zm7.8 0V17.817l5.753 2.323v60.183l-5.753-.07Zm7.578 0V20.868l5.752 2.323v57.062H56.44Zm7.577 0v-56.32l5.766 2.323v53.997h-5.766Zm7.563 0V26.984l5.766 2.323v50.946H71.58Zm7.577 0V30.035l5.78 2.338v47.88h-5.78Zm7.577 0V33.086l5.753 2.338V80.21l-5.753.043Zm7.577 0V36.15l5.767 2.338v41.764H94.31Zm7.578 0v-41.05l5.752 2.323v38.727h-5.752Zm11.518 0h-3.941v-38l3.941 1.596v36.404Z"/><defs><linearGradient id="a" x1="58.528" x2="58.528" y1="98.643" y2="2.701" gradientUnits="userSpaceOnUse"><stop stop-color="#C4A27A"/><stop offset="1" stop-color="#DBBC9A"/></linearGradient></defs></svg>
